assets/icons/qvision/mobile_friendly.svg

<svg xmlns="http://www.w3.org/2000/svg" height="24" viewBox="0 0 24 24" width="24"><path d="M0 0h24v24H0z" fill="none"/><path d="M19 1H9c-1.1 0-2 .9-2 2v3h2V4h10v16H9v-2H7v3c0 1.1.9 2 2 2h10c1.1 0 2-.9 2-2V3c0-1.1-.9-2-2-2zM7.01 13.47l-2.55-2.55-1.27 1.27L7 16l7.19-7.19-1.27-1.27z"/></svg>

<svg width="24" height="24" viewBox="0 0 24 24" fill="none" xmlns="http://www.w3.org/2000/svg">
<g clip-path="url(#clip0_147_2409)">
<path d="M19 1H9C7.9 1 7 1.9 7 3V6H9V4H19V20H9V18H7V21C7 22.1 7.9 23 9 23H19C20.1 23 21 22.1 21 21V3C21 1.9 20.1 1 19 1ZM7.01 13.47L4.46 10.92L3.19 12.19L7 16L14.19 8.81L12.92 7.54L7.01 13.47Z" fill="#323232"/>
</g>
<defs>
<clipPath id="clip0_147_2409">
<rect width="24" height="24" fill="white"/>
</clipPath>
</defs>
</svg>
